X: 33267
T: Punters' Graveyard, The
R: reel
M: 4/4
K: Bminor
~B3 c d ~B3|fgfe dcdB|ABcd ~c3 d|eAcd ecA^A|
~B3 c dBcB|fgfe def^g|aA (3cBA ~c3 d|edcd ~B3:|
BF (3FFF GB (3dcB|Acac bcac|b ~f3 Bfaf|e ~c3 (3efg fd|
B ~F3 GBdB|c2 Ac bcac|b ~f3 Bfaf|(3efg fd B3:|

